X:1
T:When This Life Is O’er
T:When This Life Is O’er
T:J. Houston Smith
T:J. Houston Smith, 1913
T:Public Domain Courtesy of the Cyber Hymnal™
T:Public Domain Courtesy of the Cyber Hymnal™
C:J. Houston Smith
Z:Public Domain
Z:Courtesy of the Cyber Hymnal™
%%score ( 1 2 ) ( 3 4 )
L:1/8
Q:1/4=97
M:4/4
K:Ab
V:1 treble 
V:2 treble 
V:3 bass 
V:4 bass 
V:1
 [Ec][Ec] | [Ae]2 [Ae]2 [Ae]2 [Ae][Ae] | [Ac]2 [Ac][Ac] [EA]2 [CE][CE] | %3
w: 1.~When this|life is o’er on that|bright, gold- en shore, We shall|
w: 2.~If we’re|saved while here, we shall|have not a fear, When the|
w: 3.~When this|life is o’er, we shall|la- bor no more, But from|
 [CA]2 [CA][CA] [Ec]2 [Ec][Ec] | [EB]6 [Ec][Ec] | [Ae]2 [Ae]2 [Ae]2 [Ae][Ae] | %6
w: wor- ship the Sav- ior we|love; Free from|pain and care, end- less|
w: reck- on- ing day shall have|come; For a-|round the throne He will|
w: toil- ing and care sweet- ly|rest; We will|loved ones meet and God’s|
 [Ac]2 [Ac][Ac] [EA]2 EE | [EA]2 [FA][EA] [Ac]2 [GB][GB] | [EA]6 ||"^Refrrain" [DG][CA] | %10
w: bless- ings to share In that|beau- ti- ful, sweet home a-|bove.||
w: crown us His own, And will|wel- come to Heav- en, our|home.|O how|
w: prais- es re- peat, Ev- er|safe with the pure and the|blest.||
 [DB]2 [DB][DB] [DB]2 [EA][EB] | [Ec]2 [Ec][Ec] [Ec]2 EE | [EA]2 [EA][EB] [Ac]2 [Ac][A=d] | %13
w: |||
w: hap- py we’ll be o- ver|death’s si- lent sea, There to|dwell with the ones gone be-|
w: |||
 [Ge]6 [Ec][Ec] | [Ae]2 [Ae]2 [Ac]2 [EA][EB] | [Ac]2 [Ac][Ac] [EA]2 EE | %16
w: |||
w: fore; Prais- ing|Christ, our king, we for-|ev- er shall sing, When this|
w: |||
 [EA]2 [FA][EA] [Ac]2 [GB][GB] | z2 x8 |] %18
w: ||
w: life with its tri- als is||
w: ||
V:2
 x2 | x8 | x8 | x8 | x8 | x8 | x6 EE | x8 | x6 || x2 | x8 | x6 EE | x8 | x8 | x8 | x6 EE | x8 | %17
 A6 F2 E2 |] %18
V:3
 A,A, | [A,C]2 [A,C]2 [A,C]2 [A,C][A,C] | [A,E]2 [A,E][A,E] [A,C]2 [A,,A,][A,,A,] | %3
 [A,,E,]2 [A,,E,][A,,E,] [A,,A,]2 [A,,A,][A,,A,] | [E,G,]6 A,A, | [A,C]2 [A,C]2 [A,C]2 [A,C][A,C] | %6
 [A,E]2 [A,E][A,E] [A,C]2 [A,C][A,C] | [A,C]2 [F,C][C,E] [C,E]2 [C,D][E,D] | [A,,C]6 || %9
 [E,B,][E,A,] | [E,G,]2 [E,G,][E,G,] [E,G,]2 [C,A,][E,G,] | %11
 [A,,A,]2 [A,,A,][A,,A,] [A,,A,]2 [A,C][A,C] | [A,C]2 [A,C][A,D] [A,E]2 [F,A,][F,B,] | %13
 [E,B,]6 A,A, | [A,C]2 [A,C]2 [A,E]2 [A,C][A,D] | [A,E]2 [A,E][A,E] [A,C]2 [A,C][A,C] | %16
 [A,C]2 [F,C][C,E] [E,E]2 [E,D][E,D] | (C2 D2 C2) x4 |] %18
V:4
 A,A, | x8 | x8 | x8 | x6 A,A, | x8 | x8 | x8 | x6 || x2 | x8 | x8 | x8 | x6 A,A, | x8 | x8 | x8 | %17
 A,,6 x4 |] %18

